desc:MS Mid FX
//tags: mid processing for parallel fx
//author: Cockos/Sexan

in_pin:left input
in_pin:right input
out_pin:left output
out_pin:right output

@init
ext_tail_size = -2;

@sample
spl0orig=spl0;
spl1orig=spl1;
spl0 = (spl0orig+spl1orig) * 0.5;
spl1 = (spl0orig+spl1orig) * 0.5;



